symbols/web/6k_plus/materialsymbolsrounded/6k_plus_wght500grad200_48px.svg

<svg xmlns="http://www.w3.org/2000/svg" height="48" width="48"><path d="M35 27.9q.4 0 .7-.3.3-.3.3-.7V25h1.9q.4 0 .7-.3.3-.3.3-.7 0-.4-.3-.7-.3-.3-.7-.3H36v-1.95q0-.4-.3-.675T35 20.1q-.4 0-.7.3-.3.3-.3.7V23h-1.9q-.45 0-.725.3-.275.3-.275.7 0 .4.275.7.275.3.725.3H34v1.9q0 .45.3.725.3.275.7.275Zm-10.35 2.15q.55 0 .9-.35t.35-.9v-3.3l3.9 4.2q.15.2.35.275.2.075.5.075.75 0 1.1-.725.35-.725-.2-1.325l-3.75-4 3.7-4.05q.5-.6.225-1.3-.275-.7-1.075-.7-.3 0-.525.1-.225.1-.325.25l-3.9 4.2v-3.35q0-.5-.375-.85t-.875-.35q-.55 0-.9.35t-.35.9v9.65q0 .5.35.85t.9.35Zm-11.25 0h5.05q.7 0 1.2-.475t.5-1.175v-3.55q0-.7-.5-1.175-.5-.475-1.2-.475h-4.2v-2.75h4.7q.5 0 .85-.35t.35-.9q0-.55-.35-.9t-.9-.35h-5.5q-.75 0-1.2.5-.45.5-.45 1.2v8.75q0 .7.45 1.175.45.475 1.2.475Zm.85-1.65v-3.55h3.35v3.55ZM9.1 42.75q-1.55 0-2.7-1.15-1.15-1.15-1.15-2.7V9.1q0-1.5 1.15-2.675Q7.55 5.25 9.1 5.25h29.8q1.5 0 2.675 1.175Q42.75 7.6 42.75 9.1v29.8q0 1.55-1.175 2.7-1.175 1.15-2.675 1.15Zm0-3.85h29.8V9.1H9.1v29.8Zm0-29.8v29.8V9.1Z"/></svg>

<svg xmlns="http://www.w3.org/2000/svg" height="48" width="48"><path d="M35 27.9Q35.4 27.9 35.7 27.6Q36 27.3 36 26.9V25H37.9Q38.3 25 38.6 24.7Q38.9 24.4 38.9 24Q38.9 23.6 38.6 23.3Q38.3 23 37.9 23H36V21.05Q36 20.65 35.7 20.375Q35.4 20.1 35 20.1Q34.6 20.1 34.3 20.4Q34 20.7 34 21.1V23H32.1Q31.65 23 31.375 23.3Q31.1 23.6 31.1 24Q31.1 24.4 31.375 24.7Q31.65 25 32.1 25H34V26.9Q34 27.35 34.3 27.625Q34.6 27.9 35 27.9ZM24.65 30.05Q25.2 30.05 25.55 29.7Q25.9 29.35 25.9 28.8V25.5L29.8 29.7Q29.95 29.9 30.15 29.975Q30.35 30.05 30.65 30.05Q31.4 30.05 31.75 29.325Q32.1 28.6 31.55 28L27.8 24L31.5 19.95Q32 19.35 31.725 18.65Q31.45 17.95 30.65 17.95Q30.35 17.95 30.125 18.05Q29.9 18.15 29.8 18.3L25.9 22.5V19.15Q25.9 18.65 25.525 18.3Q25.15 17.95 24.65 17.95Q24.1 17.95 23.75 18.3Q23.4 18.65 23.4 19.2V28.85Q23.4 29.35 23.75 29.7Q24.1 30.05 24.65 30.05ZM13.4 30.05H18.45Q19.15 30.05 19.65 29.575Q20.15 29.1 20.15 28.4V24.85Q20.15 24.15 19.65 23.675Q19.15 23.2 18.45 23.2H14.25V20.45H18.95Q19.45 20.45 19.8 20.1Q20.15 19.75 20.15 19.2Q20.15 18.65 19.8 18.3Q19.45 17.95 18.9 17.95H13.4Q12.65 17.95 12.2 18.45Q11.75 18.95 11.75 19.65V28.4Q11.75 29.1 12.2 29.575Q12.65 30.05 13.4 30.05ZM14.25 28.4V24.85H17.6V28.4ZM9.1 42.75Q7.55 42.75 6.4 41.6Q5.25 40.45 5.25 38.9V9.1Q5.25 7.6 6.4 6.425Q7.55 5.25 9.1 5.25H38.9Q40.4 5.25 41.575 6.425Q42.75 7.6 42.75 9.1V38.9Q42.75 40.45 41.575 41.6Q40.4 42.75 38.9 42.75ZM9.1 38.9H38.9Q38.9 38.9 38.9 38.9Q38.9 38.9 38.9 38.9V9.1Q38.9 9.1 38.9 9.1Q38.9 9.1 38.9 9.1H9.1Q9.1 9.1 9.1 9.1Q9.1 9.1 9.1 9.1V38.9Q9.1 38.9 9.1 38.9Q9.1 38.9 9.1 38.9ZM9.1 9.1Q9.1 9.1 9.1 9.1Q9.1 9.1 9.1 9.1V38.9Q9.1 38.9 9.1 38.9Q9.1 38.9 9.1 38.9Q9.1 38.9 9.1 38.9Q9.1 38.9 9.1 38.9V9.1Q9.1 9.1 9.1 9.1Q9.1 9.1 9.1 9.1Z"/></svg>
